src/assets/github.svg

<svg width="34" height="37" viewBox="0 0 34 37" fill="none" xmlns="http://www.w3.org/2000/svg">
<path d="M16.9991 0.53003C8.66233 0.528862 1.55558 7.12108 0.22079 16.0936C-1.11399 25.0661 3.71732 33.7696 11.6271 36.6416C12.479 36.8088 12.7839 36.2385 12.7839 35.7481C12.7839 35.3078 12.7703 34.1412 12.7652 32.59C8.03715 33.7046 7.03872 30.1044 7.03872 30.1044C6.72747 28.9841 6.05832 28.0226 5.15261 27.3941C3.61919 26.2442 5.27018 26.2702 5.27018 26.2702C6.36176 26.4333 7.32249 27.1385 7.87188 28.1799C8.33691 29.1017 9.12036 29.783 10.0482 30.0721C10.976 30.3613 11.9713 30.2345 12.8129 29.7199C12.892 28.7799 13.2756 27.9014 13.8948 27.2417C10.1226 26.7754 6.15615 25.1853 6.15615 18.0833C6.13522 16.2464 6.76083 14.4707 7.90425 13.1214C7.3869 11.5225 7.44782 9.76878 8.07463 8.21714C8.07463 8.21714 9.50072 7.71743 12.7465 10.1138C15.5302 9.28161 18.4681 9.28161 21.2518 10.1138C24.4993 7.71557 25.9237 8.21714 25.9237 8.21714C26.5534 9.76805 26.6143 11.523 26.094 13.1214C27.2416 14.4705 27.8667 16.251 27.8387 18.0908C27.8387 25.2113 23.8689 26.7754 20.083 27.2343C20.8997 28.1447 21.3185 29.3936 21.2331 30.6636C21.2331 33.1417 21.2126 35.1406 21.2126 35.7481C21.2126 36.2441 21.5159 36.82 22.3832 36.6379C30.2896 33.761 35.1157 25.057 33.7782 16.0869C32.4407 7.11675 25.3342 0.52795 16.9991 0.53003Z" fill="#0A0A14"/>
</svg>

<svg width="34" height="37" fill="none" xmlns="http://www.w3.org/2000/svg">
<path d="M17 .53C8.661.529 1.555 7.121.22 16.094c-1.334 8.972 3.497 17.676 11.407 20.548.852.167 1.157-.404 1.157-.894 0-.44-.014-1.607-.019-3.158-4.728 1.115-5.726-2.486-5.726-2.486-.312-1.12-.98-2.081-1.886-2.71-1.534-1.15.117-1.124.117-1.124 1.092.163 2.052.869 2.602 1.91.465.922 1.248 1.603 2.176 1.892.928.29 1.923.163 2.765-.352.079-.94.463-1.819 1.082-2.478-3.772-.467-7.739-2.057-7.739-9.159-.02-1.837.605-3.612 1.748-4.962a7.224 7.224 0 0 1 .17-4.904s1.427-.5 4.672 1.897a14.8 14.8 0 0 1 8.506 0c3.247-2.398 4.672-1.897 4.672-1.897a7.19 7.19 0 0 1 .17 4.904c1.148 1.35 1.773 3.13 1.745 4.97 0 7.12-3.97 8.684-7.756 9.143.817.91 1.236 2.16 1.15 3.43 0 2.478-.02 4.477-.02 5.084 0 .496.303 1.072 1.17.89 7.907-2.877 12.733-11.581 11.395-20.551C32.441 7.117 25.334.528 17 .53Z" fill="#0A0A14"/>
</svg>
